X:1
T:Monticello, 87.87
T:Monticello, 87.87
T:Charles Spurgeon Brown, 1902
T:Public Domain Courtesy of the Cyber Hymnal™
C:Charles Spurgeon Brown, 1902
Z:Public Domain
Z:Courtesy of the Cyber Hymnal™
%%score 1 ( 2 3 )
L:1/8
Q:1/4=105
M:2/2
K:Eb
V:1 treble 
V:2 bass 
V:3 bass 
V:1
 [EG]2 [EB]2 [EA]3 [EF] | [EG]3 [DF] [B,E]2 [B,D]2 | [B,E]2 [_DE]2 [Cc]3 [=Dc] | %3
 [EB]2 [DA]2 [EG]4 | [EG]2 [FG]2 [Ee]3 [Ed] | [Ec]2 [EG]2 [CB]2 [CA]2 | [CE]2 [EF]2 [EG]3 [EA] | %7
 [DF]2 [DG]2 [B,E]4 |] %8
V:2
 [E,B,]2 [G,_D]2 [A,C]3 [=A,C] | B,3 [A,B,] [G,B,]2 [F,A,]2 | [E,G,]2 [G,,E,]2 [A,,E,]3 [A,,F,] | %3
 [B,,G,]2 [B,,B,]2 [E,B,]4 | [E,B,]2 [D,=B,]2 [C,C]3 [C,G,] | [C,G,]2 [C,C]2 [F,G,]2 [F,A,]2 | %6
 A,2 [A,C]2 [G,C]3 [F,C] | [B,,A,]2 [B,,B,]2 [E,G,]4 |] %8
V:3
 x8 | B,3 x5 | x8 | x8 | x8 | x8 | A,2 x6 | x8 |] %8

